X:1
T: The Boys from Scart
C:
R:Reel
Q: 232
K:G
M:4/4
L:1/8
|:dc|BG Bd BG Bd|gf ge dB GB|ec dB cA BG|DA AB A2 dc|
BG Bd BG Bd|gf ge dB GB|ec dB cA BG|D2 G2 G2:|
|:z2|dg ((3gfg) dg ((3gfg) |dg ba gf ed|ea ((3aga) ea ((3aga) |ea af gf ef|
dg ((3gfg) dg ((3gfg) |dg ba gf ef|df af gf ef|g2 gf g2:|
